X:31
T:General Cloud's Fancy. ThoH.031
Q:1/4=100
M:C|
L:1/8
B:Thompson's Compleat Collection of 120 Favourite Hornpipes.
Z:Village Music Project, Simon Wilson 2016
O:England.
K:F
((3cde)|f2f2f2(fg/a/)|gf (ef/g/)f2c2|((3def) ed cBAG|(AB/c/)F2-F2cB|
AFGA Bcde|fcde fbag|fedc edc=B|c6:|
|:cB|Ac_e2-e2g2|f_edc dBAB|d=ef2-f2(fg/a/)|gfed ec=Bc|
gece gbag|afef {d}c2BA|(B/c/d/e/) fd cBAG|(F/G/A/B/) cAF2:|

